src/components/atoms/Icon/icons/dollar-small.svg

<svg xmlns="http://www.w3.org/2000/svg" xmlns:xlink="http://www.w3.org/1999/xlink" width="16" height="16" viewBox="0 0 16 16">
  <defs>
    <path id="dollar-small-a" d="M8.32,7.26666667 C6.80666667,6.87333333 6.32,6.46666667 6.32,5.83333333 C6.32,5.10666667 6.99333333,4.6 8.12,4.6 C9.30666667,4.6 9.74666667,5.16666667 9.78666667,6 L11.26,6 C11.2133333,4.85333333 10.5133333,3.8 9.12,3.46 L9.12,2 L7.12,2 L7.12,3.44 C5.82666667,3.72 4.78666667,4.56 4.78666667,5.84666667 C4.78666667,7.38666667 6.06,8.15333333 7.92,8.6 C9.58666667,9 9.92,9.58666667 9.92,10.2066667 C9.92,10.6666667 9.59333333,11.4 8.12,11.4 C6.74666667,11.4 6.20666667,10.7866667 6.13333333,10 L4.66666667,10 C4.74666667,11.46 5.84,12.28 7.12,12.5533333 L7.12,14 L9.12,14 L9.12,12.5666667 C10.42,12.32 11.4533333,11.5666667 11.4533333,10.2 C11.4533333,8.30666667 9.83333333,7.66 8.32,7.26666667 Z"/>
  </defs>
  <g fill="none" fill-rule="evenodd">
    <mask id="dollar-small-b" fill="#fff">
      <use xlink:href="#dollar-small-a"/>
    </mask>
    <use fill="#000" fill-rule="nonzero" xlink:href="#dollar-small-a"/>
    <g fill="currentColor" fill-rule="nonzero" mask="url(#dollar-small-b)">
      <rect width="16" height="16"/>
    </g>
  </g>
</svg>

<svg xmlns="http://www.w3.org/2000/svg" xmlns:xlink="http://www.w3.org/1999/xlink" width="16" height="16"><defs><path id="dollar-small-a" d="M8.32 7.267c-1.513-.394-2-.8-2-1.434 0-.726.673-1.233 1.8-1.233 1.187 0 1.627.567 1.667 1.4h1.473c-.047-1.147-.747-2.2-2.14-2.54V2h-2v1.44c-1.293.28-2.333 1.12-2.333 2.407 0 1.54 1.273 2.306 3.133 2.753 1.667.4 2 .987 2 1.607 0 .46-.327 1.193-1.8 1.193-1.373 0-1.913-.613-1.987-1.4H4.667c.08 1.46 1.173 2.28 2.453 2.553V14h2v-1.433c1.3-.247 2.333-1 2.333-2.367 0-1.893-1.62-2.54-3.133-2.933z"/></defs><g fill="none" fill-rule="evenodd"><mask id="dollar-small-b" fill="#fff"><use xlink:href="#dollar-small-a"/></mask><use fill="#000" fill-rule="nonzero" xlink:href="#dollar-small-a"/><g fill="currentColor" fill-rule="nonzero" mask="url(#dollar-small-b)"><path d="M0 0h16v16H0z"/></g></g></svg>
